public/images/hashed/c6fbf72edac8a5ce846abf41deb0fbe2.svg

<svg xmlns="http://www.w3.org/2000/svg" width="80" height="80"><defs><linearGradient id="a" x1="0%" x2="100%" y1="100%" y2="0%"><stop offset="0%" stop-color="#055F4E"/><stop offset="100%" stop-color="#56C0A7"/></linearGradient></defs><g fill="none" fill-rule="evenodd"><path fill="url(#a)" d="M0 0h80v80H0z"/><path fill="#FFF" d="M50.592 31.523a1.504 1.504 0 0 1-2.114.006l-3.775-3.728a1.001 1.001 0 0 0-1.703.711V50c0 3.859-3.14 7-7 7-3.859 0-7-3.141-7-7 0-3.86 3.141-7 7-7 .901 0 1.783.172 2.624.513A.997.997 0 0 0 40 42.586V22.5c0-.712.501-1.321 1.206-1.466a.766.766 0 0 0 .061-.008c.067-.01.134-.023.203-.026l.05.002h.01c.401 0 .776.154 1.058.434l8.006 7.957c.285.283.442.66.443 1.062 0 .401-.155.779-.445 1.068Zm-6.595-11.507a3.471 3.471 0 0 0-2.435-1.014 1.875 1.875 0 0 0-.531.041 1.36 1.36 0 0 0-.143.016A3.492 3.492 0 0 0 38 22.5v18.726A8.876 8.876 0 0 0 36 41c-4.963 0-9 4.037-9 9 0 4.962 4.037 9 9 9s9-4.038 9-9V30.906l2.072 2.047a3.513 3.513 0 0 0 4.94-.021 3.482 3.482 0 0 0 1.025-2.48 3.482 3.482 0 0 0-1.033-2.478l-8.007-7.958ZM66 35.531a18.024 18.024 0 0 1-18 3.204v2.113a19.908 19.908 0 0 0 6.276 1.024c4.15 0 8.265-1.296 11.724-3.795V64c0 1.103-.897 2-2 2H16c-1.102 0-2-.897-2-2V45.281l1.421-2.324C19.563 36.176 27.54 33.044 35 34.856v-2.039c-7.987-1.735-16.414 1.58-21 8.674V16c0-1.103.898-2 2-2h48c1.103 0 2 .897 2 2v19.531ZM64 12H16c-2.206 0-4 1.794-4 4v48c0 2.205 1.794 4 4 4h48c2.206 0 4-1.795 4-4V16c0-2.206-1.794-4-4-4Z"/></g></svg>

<?xml version="1.0" encoding="UTF-8"?>
<svg width="80px" height="80px" viewBox="0 0 80 80" version="1.1" xmlns="http://www.w3.org/2000/svg" xmlns:xlink="http://www.w3.org/1999/xlink">
    <!-- Generator: Sketch 64 (93537) - https://sketch.com -->
    <title>Icon-Architecture/64/Arch_AWS-Deep-Composer_64</title>
    <desc>Created with Sketch.</desc>
    <defs>
        <linearGradient x1="0%" y1="100%" x2="100%" y2="0%" id="linearGradient-1">
            <stop stop-color="#055F4E" offset="0%"></stop>
            <stop stop-color="#56C0A7" offset="100%"></stop>
        </linearGradient>
    </defs>
    <g id="Icon-Architecture/64/Arch_AWS-Deep-Composer_64" stroke="none" stroke-width="1" fill="none" fill-rule="evenodd">
        <g id="Icon-Architecture-BG/64/Machine-Learning" fill="url(#linearGradient-1)">
            <rect id="Rectangle" x="0" y="0" width="80" height="80"></rect>
        </g>
        <path d="M50.592,31.523 C50.011,32.103 49.063,32.107 48.478,31.529 L44.703,27.801 C44.415,27.518 43.988,27.436 43.614,27.589 C43.242,27.745 43,28.109 43,28.512 L43,50 C43,53.859 39.86,57 36,57 C32.141,57 29,53.859 29,50 C29,46.14 32.141,43 36,43 C36.901,43 37.783,43.172 38.624,43.513 C38.933,43.639 39.284,43.602 39.559,43.416 C39.835,43.23 40,42.919 40,42.586 L40,22.5 C40,21.788 40.501,21.179 41.206,21.034 C41.228,21.032 41.25,21.029 41.267,21.026 C41.334,21.016 41.401,21.003 41.47,21 C41.488,21.001 41.504,21.002 41.52,21.002 L41.53,21.002 C41.931,21.002 42.306,21.156 42.588,21.436 L50.594,29.393 C50.879,29.676 51.036,30.053 51.037,30.455 C51.037,30.856 50.882,31.234 50.592,31.523 L50.592,31.523 Z M43.997,20.016 C43.344,19.368 42.479,19.008 41.562,19.002 C41.331,18.984 41.14,19.021 41.031,19.043 C40.991,19.045 40.927,19.052 40.888,19.059 C39.215,19.356 38,20.802 38,22.5 L38,32 L38,33.708 L38,35.865 L38,37 L38,41.226 C37.346,41.075 36.677,41 36,41 C31.037,41 27,45.037 27,50 C27,54.962 31.037,59 36,59 C40.963,59 45,54.962 45,50 L45,42 L45,39.581 L45,37.315 L45,37 L45,30.906 L47.072,32.953 C48.437,34.3 50.652,34.292 52.012,32.932 C52.674,32.269 53.038,31.388 53.0370021,30.452 C53.035,29.514 52.668,28.635 52.004,27.974 L43.997,20.016 Z M66,35.531 C60.996,39.822 54.076,40.998 48,38.735 L48,40.848 C50.044,41.527 52.162,41.872 54.276,41.872 C58.426,41.872 62.541,40.576 66,38.077 L66,64 C66,65.103 65.103,66 64,66 L16,66 C14.898,66 14,65.103 14,64 L14,45.281 L15.421,42.957 C19.563,36.176 27.54,33.044 35,34.856 L35,32.817 C27.013,31.082 18.586,34.397 14,41.491 L14,16 C14,14.897 14.898,14 16,14 L64,14 C65.103,14 66,14.897 66,16 L66,35.531 Z M64,12 L16,12 C13.794,12 12,13.794 12,16 L12,64 C12,66.205 13.794,68 16,68 L64,68 C66.206,68 68,66.205 68,64 L68,16 C68,13.794 66.206,12 64,12 L64,12 Z" id="AWS-Deep-Composer_Icon_64_Squid" fill="#FFFFFF"></path>
    </g>
</svg>
